app/assets/images/icons/info.svg

<?xml version="1.0" encoding="UTF-8"?>
<svg width="16px" height="16px" viewBox="0 0 16 16" version="1.1" xmlns="http://www.w3.org/2000/svg" xmlns:xlink="http://www.w3.org/1999/xlink">
    <title>icon</title>
    <g id="icon" stroke="none" stroke-width="1" fill="none" fill-rule="evenodd">
        <g id="􀅴" fill="#000000" fill-rule="nonzero">
            <path d="M8,16 C12.375605,16 16,12.3833495 16,8 C16,3.62439497 12.375605,0 7.99225557,0 C3.61665053,0 0,3.62439497 0,8 C0,12.3833495 3.62439497,16 8,16 Z M8,14.42788 C4.4375605,14.42788 1.57986447,11.5624395 1.57986447,8 C1.57986447,4.4375605 4.42981607,1.57986447 7.99225557,1.57986447 C11.5546951,1.57986447 14.4201355,4.4375605 14.42788,8 C14.42788,11.5624395 11.5624395,14.42788 8,14.42788 Z M7.9535334,5.36689255 C8.54211036,5.36689255 9.00677638,4.89448209 9.00677638,4.31364956 C9.00677638,3.71732817 8.54211036,3.24491772 7.9535334,3.24491772 C7.37270087,3.24491772 6.90029042,3.71732817 6.90029042,4.31364956 C6.90029042,4.89448209 7.37270087,5.36689255 7.9535334,5.36689255 Z M6.62923524,12.2129719 L9.77347531,12.2129719 C10.1219748,12.2129719 10.39303,11.96515 10.39303,11.6166505 C10.39303,11.2836399 10.1219748,11.0203291 9.77347531,11.0203291 L8.90609874,11.0203291 L8.90609874,7.34172314 C8.90609874,6.87705712 8.67376573,6.5750242 8.24007744,6.5750242 L6.76863504,6.5750242 C6.42787996,6.5750242 6.14908035,6.83833495 6.14908035,7.1713456 C6.14908035,7.51984511 6.42787996,7.76766699 6.76863504,7.76766699 L7.55856728,7.76766699 L7.55856728,11.0203291 L6.62923524,11.0203291 C6.28848015,11.0203291 6.01742498,11.2836399 6.01742498,11.6166505 C6.01742498,11.96515 6.28848015,12.2129719 6.62923524,12.2129719 Z" id="Shape"></path>
        </g>
    </g>
</svg>

<svg width="16" height="16" xmlns="http://www.w3.org/2000/svg">
    <path d="M8 16c4.376 0 8-3.617 8-8 0-4.376-3.624-8-8.008-8C3.617 0 0 3.624 0 8c0 4.383 3.624 8 8 8Zm0-1.572A6.405 6.405 0 0 1 1.58 8c0-3.562 2.85-6.42 6.412-6.42A6.417 6.417 0 0 1 14.428 8 6.412 6.412 0 0 1 8 14.428Zm-.046-9.061a1.05 1.05 0 0 0 1.053-1.053 1.053 1.053 0 1 0-2.107 0c0 .58.473 1.053 1.054 1.053Zm-1.325 6.846h3.144c.349 0 .62-.248.62-.596a.602.602 0 0 0-.62-.597h-.867V7.342c0-.465-.232-.767-.666-.767H6.77a.607.607 0 0 0-.62.596c0 .349.279.597.62.597h.79v3.252h-.93a.6.6 0 0 0-.612.597c0 .348.271.596.612.596Z"/>
</svg>
